tools/download-figma-icons/icons/outlined-large/contracting.svg

<svg width="64" height="64" viewBox="0 0 64 64" fill="none" xmlns="http://www.w3.org/2000/svg">
<path fill-rule="evenodd" clip-rule="evenodd" d="M52.8818 12H44.0078V3.12099L52.8818 12ZM54.5258 60.9948L10.999 60.9998V2.99999H41.0088V13.4999C41.0088 14.3279 41.6808 14.9999 42.5078 14.9999H53.0058L53.0268 44.5008C53.0278 45.3288 53.6978 45.9998 54.5268 45.9998H54.5278C55.3548 45.9988 56.0268 45.3268 56.0258 44.4988L56.0028 11.499C56.0028 11.102 55.8448 10.721 55.5638 10.439L45.5678 0.438998C45.2858 0.157999 44.9048 0 44.5078 0H9.49896C8.67197 0 7.99997 0.671997 7.99997 1.49999V62.4998C7.99997 62.8968 8.15797 63.2788 8.43997 63.5608C8.72097 63.8418 9.10297 63.9998 9.49896 63.9998L54.5258 63.9948C55.3528 63.9948 56.0248 63.3228 56.0248 62.4948C56.0248 61.6668 55.3528 60.9948 54.5258 60.9948ZM63.5605 46.4393C62.9745 45.8533 62.0265 45.8533 61.4405 46.4393L54.5035 53.3783L51.5655 50.4393C50.9795 49.8533 50.0305 49.8533 49.4455 50.4393C48.8595 51.0253 48.8595 51.9743 49.4455 52.5603L53.4435 56.5603C53.7365 56.8533 54.1205 57.0003 54.5035 57.0003C54.8875 57.0003 55.2705 56.8533 55.5635 56.5603L63.5605 48.5603C64.1465 47.9743 64.1465 47.0253 63.5605 46.4393ZM32.0127 17.6846L25.0147 25.0966V32.9996H39.0097V25.0966L32.0127 17.6846ZM42.0086 34.4996C42.0086 35.3276 41.3366 35.9996 40.5086 35.9996H23.5157C22.6877 35.9996 22.0157 35.3276 22.0157 34.4996V24.4996C22.0157 24.1176 22.1617 23.7476 22.4247 23.4696L30.9217 14.4696C31.4887 13.8696 32.5357 13.8696 33.1027 14.4696L41.5996 23.4696C41.8626 23.7476 42.0086 24.1176 42.0086 24.4996V34.4996ZM48.0058 41.4998C48.0058 40.6718 47.3348 39.9998 46.5068 39.9998H17.5179C16.6909 39.9998 16.0189 40.6718 16.0189 41.4998C16.0189 42.3278 16.6909 42.9998 17.5179 42.9998H46.5068C47.3348 42.9998 48.0058 42.3278 48.0058 41.4998ZM16.0186 48.4998C16.0186 47.6718 16.6906 46.9998 17.5176 46.9998H36.5106C37.3376 46.9998 38.0096 47.6718 38.0096 48.4998C38.0096 49.3278 37.3376 49.9998 36.5106 49.9998H17.5176C16.6906 49.9998 16.0186 49.3278 16.0186 48.4998Z" fill="black"/>
</svg>

<svg width="64" height="64" viewBox="0 0 64 64" fill="none" xmlns="http://www.w3.org/2000/svg"><path fill-rule="evenodd" clip-rule="evenodd" d="M52.882 12h-8.874V3.121L52.882 12Zm1.644 48.995L10.999 61V3h30.01v10.5a1.5 1.5 0 0 0 1.499 1.5h10.498l.02 29.5a1.5 1.5 0 0 0 1.5 1.5h.002a1.5 1.5 0 0 0 1.498-1.501l-.023-33c0-.397-.158-.778-.44-1.06l-9.995-10A1.502 1.502 0 0 0 44.508 0H9.499A1.5 1.5 0 0 0 8 1.5v61A1.501 1.501 0 0 0 9.499 64l45.027-.005a1.5 1.5 0 0 0 0-3Zm9.034-14.556a1.498 1.498 0 0 0-2.12 0l-6.936 6.94-2.938-2.94a1.5 1.5 0 1 0-2.12 2.121l3.998 4a1.496 1.496 0 0 0 2.12 0l7.996-8a1.5 1.5 0 0 0 0-2.12ZM32.013 17.685l-6.998 7.412V33H39.01v-7.903l-6.997-7.412ZM42.009 34.5a1.5 1.5 0 0 1-1.5 1.5H23.516a1.5 1.5 0 0 1-1.5-1.5v-10a1.5 1.5 0 0 1 .409-1.03l8.497-9c.567-.6 1.614-.6 2.18 0l8.498 9a1.5 1.5 0 0 1 .409 1.03v10Zm5.997 7a1.5 1.5 0 0 0-1.5-1.5H17.519a1.5 1.5 0 0 0 0 3h28.989a1.5 1.5 0 0 0 1.499-1.5Zm-31.987 7a1.5 1.5 0 0 1 1.499-1.5H36.51a1.5 1.5 0 0 1 0 3H17.518a1.5 1.5 0 0 1-1.5-1.5Z" fill="currentColor"/></svg>
